X:1
T:Laus Deo, 66.66.88
T:John Henry Gower, 1895
T:Laus Deo, 66.66.88
T:Public Domain
C:John Henry Gower, 1895
Z:Public Domain
%%score ( 1 2 ) ( 3 4 )
L:1/8
M:4/4
K:G
V:1 treble 
V:2 treble 
V:3 bass 
V:4 bass 
V:1
 [GB]2 | [GB]3 [GB] [Gd]2 [Gd]2 | [Fc]4 [CF]4 | [B,G]3 [DG] [EA]2 [FA]2 | [GB]4 [Fd]4 | %5
 [Gd]3 [Gd] [Ge]2 [Gc]2 | [Gd]4 [FB]4 | [B,B]3 [B,E] [^CF]2 [CG]2 | [DA]6 D2 | E2 FG F2 D2 | %10
 E2 FG A2 D2 | G2 B2 d2 [GA]2 | [GB]4 [FA]4 | [DG]6 |] %14
V:2
 x2 | x8 | x8 | x8 | x8 | x8 | x8 | x8 | x6 D2 | E2 F2 D2 x2 | E2 A2 D2 x2 | G2 B2 d2 x2 | x8 | %13
 x6 |] %14
V:3
 [G,D]2 | [G,D]3 [G,D] [B,D]2 [B,D]2 | [A,D]4 [D,A,]4 | [D,G,]3 [D,B,] [D,C]2 [D,D]2 | %4
 [G,D]4 [A,C]4 | [G,B,]3 [B,D] C2 [A,E]2 | [B,D]4 [B,,D]4 | [E,G,]3 [E,G,] [A,,A,]2 [A,,G,]2 | %8
 [D,F,]6 D,2 | E,2 F,G, F,2 D,2 | E,2 F,G, A,2 D,2 | G,2 B,2 D2 [C,E]2 | [D,D]4 [D,C]4 | %13
 [G,,G,B,]6 |] %14
V:4
 x2 | x8 | x8 | x8 | x8 | x8 | x8 | x8 | x6 D,2 | E,2 F,2 D,2 x2 | x4 A,2 D,2 | G,2 B,2 D2 x2 | %12
 x8 | x6 |] %14

